64x64/apps/com.github.kmal-kenneth.monilet.svg

<svg height="64" width="64" xmlns="http://www.w3.org/2000/svg"><rect height="56" opacity=".2" rx="2.8" width="56" x="4" y="5"/><rect fill="#585c75" height="56" rx="2.8" width="56" x="4" y="4"/><g fill="none" stroke-linecap="round" stroke-linejoin="round" stroke-width="6"><path d="m19.977 46.021a17 17 0 0 1 -3.677-18.547 17 17 0 0 1 15.742-10.474 17 17 0 0 1 15.688 10.556 17 17 0 0 1 -3.774 18.528" opacity=".3" stroke="#000"/><path d="m19.977 47.022a17 17 0 0 1 -4.215-17.062 17 17 0 0 1 13.138-11.674" opacity=".2" stroke="#000"/><path d="m19.977 46.021a17 17 0 0 1 -4.215-17.062 17 17 0 0 1 13.138-11.674" stroke="#5cddbe"/></g><path d="m6.8 4c-1.55 0-2.8 1.25-2.8 2.8v1c0-1.55 1.25-2.8 2.8-2.8h50.4c1.55 0 2.8 1.25 2.8 2.8v-1c0-1.55-1.25-2.8-2.8-2.8z" fill="#f4f4f7" opacity=".1"/><path d="m28.86 14.277a3 3 0 0 0 -.506.059 20.015 20.015 0 0 0 -15.458 13.734 19.942 19.942 0 0 0 -.884 6.301c.055-1.775.343-3.558.884-5.3a20.015 20.015 0 0 1 15.458-13.735 3 3 0 0 1 .505-.059 3 3 0 0 1 3.041 2.5 3 3 0 0 0 -3.04-3.5zm-10.855 20.256a13.983 13.983 0 0 0 4.093 10.367 3 3 0 0 1 .877 1.67 3 3 0 0 0 -.877-2.67 13.984 13.984 0 0 1 -4.092-9.367z" fill="#f4f4f7" fill-rule="evenodd" opacity=".2"/></svg>

<svg height="64" width="64" xmlns="http://www.w3.org/2000/svg">
    <rect height="56" opacity=".2" rx="2.8" width="56" x="4" y="5"/>
    <rect fill="#585c75" height="56" rx="2.8" width="56" x="4" y="4"/>
    <g fill="none" stroke-linecap="round" stroke-linejoin="round" stroke-width="6">
        <path d="M19.977 46.021A17 17 0 0 1 16.3 27.474 17 17 0 0 1 32.042 17 17 17 0 0 1 47.73 27.556a17 17 0 0 1-3.774 18.528" opacity=".3" stroke="#000"/>
        <path d="M19.977 47.022a17 17 0 0 1-4.215-17.062A17 17 0 0 1 28.9 18.286" opacity=".2" stroke="#000"/>
        <path d="M19.977 46.021a17 17 0 0 1-4.215-17.062A17 17 0 0 1 28.9 17.285" stroke="#5cddbe"/>
    </g>
    <g fill="#f4f4f7">
        <path d="M6.8 4C5.25 4 4 5.25 4 6.8v1C4 6.25 5.25 5 6.8 5h50.4C58.75 5 60 6.25 60 7.8v-1C60 5.25 58.75 4 57.2 4z" opacity=".1"/>
        <path d="M28.86 14.277a3 3 0 0 0-.506.059A20.015 20.015 0 0 0 12.896 28.07a19.942 19.942 0 0 0-.884 6.301 19.94 19.94 0 0 1 .884-5.3 20.015 20.015 0 0 1 15.458-13.735 3 3 0 0 1 .505-.059 3 3 0 0 1 3.041 2.5 3 3 0 0 0-3.04-3.5zM18.005 34.533A13.983 13.983 0 0 0 22.098 44.9a3 3 0 0 1 .877 1.67 3 3 0 0 0-.877-2.67 13.984 13.984 0 0 1-4.092-9.367z" fill-rule="evenodd" opacity=".2"/>
    </g>
</svg>
